!!!ONR: No. 10
!! From Harold Courlander, "Haiti Singing"
!! Chapel Hill: University of North Carolina Press, 1939
!! Copyright University of North Carolina Press
!!!ENC: D. Huron
**kern
*clefG2
*k[]
*M2/4
=1-
4r
8a
8a
=2
6cc
6b
[6a
=3
4a]
8a
8a
=4
6ee
6ee
[6ee
=5
4ee]
8b
8b
=6
6a
6a
[4g
=7
4g]
8b
8b
=8
4dd
8dd
8ff
=9
8ee
8ff
8ee
8ff
=10
8dd
[4.ff
=11
8ff]
8ee
8ee
8dd
=12
4cc
4a
=13
4a
8f
[8f
=14
4f]
8a
8a
=15
2cc
=16
8ee
8ee
8dd
8b
=17
6a
6g#
[6a
=18
2a]
==
*-
